X: 3880
T:Anna Bolena. JMT042
M:4/4
L:1/8
Q:135
C:Unedited!
S:J.Moore,Tyneside,1841.(30)
R:March
O:England
A:Northumbria
N:Bar lines all over the place ! Very suitable for the village band to
N:play at the garden fete for visiting pompousness's
H:184
Z:C.G.P
K:C
ezcz|G3c/-d/ ezcz|G3A/-B/ czd2z|ef2|^cde2B|!
c2-Gzezcz|G3c/-d/ ezcz|(G3A/B/) czez|dg^fe d^c=cA|G2z2|!
|"cres."G2G2|(d3^c/)d/(e3^d/)e/|f2-GzG2G2|c>GE>G c>ea>g|g2-dz"soft"G2G2|
